;START_OF_HEADER
;HEADER_VERSION:0.1
;FLAVOR:Griffin
;GENERATOR.NAME:Cura_SteamEngine
;GENERATOR.VERSION:4.11.0
;GENERATOR.BUILD_DATE:2021-09-07
;TARGET_MACHINE.NAME:Ultimaker 3
;EXTRUDER_TRAIN.0.INITIAL_TEMPERATURE:205
;EXTRUDER_TRAIN.0.MATERIAL.VOLUME_USED:1269
;EXTRUDER_TRAIN.0.MATERIAL.GUID:506c9f0d-e3aa-4bd4-b2d2-23e2425b1aa9
;EXTRUDER_TRAIN.0.NOZZLE.DIAMETER:0.4
;EXTRUDER_TRAIN.0.NOZZLE.NAME:AA 0.4
;BUILD_PLATE.TYPE:glass
;BUILD_PLATE.INITIAL_TEMPERATURE:60
;PRINT.TIME:1752
;PRINT.GROUPS:1
;PRINT.SIZE.MIN.X:9
;PRINT.SIZE.MIN.Y:6
;PRINT.SIZE.MIN.Z:0.27
;PRINT.SIZE.MAX.X:114.924
;PRINT.SIZE.MAX.Y:111.58
;PRINT.SIZE.MAX.Z:15.77
;END_OF_HEADER
;Generated with Cura_SteamEngine 4.11.0
T0
M82 ;absolute extrusion mode

G92 E0
M109 S205
G0 F15000 X9 Y6 Z2
G280
G1 F1500 E-6.5
;LAYER_COUNT:156
;LAYER:0
M107
M204 S625
M205 X6 Y6
G1 F600 Z2.27
G0 F4285.7 X87.047 Y86.278 Z2.27
M204 S500
M205 X5 Y5
;TYPE:SKIRT
G1 F600 Z0.27
G1 F1500 E0
G1 F1200 X87.632 Y85.819 E0.01322
G1 X88.264 Y85.425 E0.02646
G1 X88.934 Y85.101 E0.03969
G1 X89.8 Y84.804 E0.05596
G1 X90.642 Y84.576 E0.07147
G1 X91.37 Y84.42 E0.0847
G1 X92.11 Y84.343 E0.09793
G1 X92.854 Y84.347 E0.11115
G1 X93.594 Y84.43 E0.12439
G1 X94.32 Y84.591 E0.13761
G1 X95.025 Y84.83 E0.15084
G1 X95.701 Y85.143 E0.16408
G1 X96.339 Y85.527 E0.17732
G1 X96.861 Y85.923 E0.18897
G1 X97.104 Y85.73 E0.19448
G1 X97.733 Y85.333 E0.2077
G1 X98.402 Y85.005 E0.22095
G1 X99.323 Y84.687 E0.23827
G1 X99.491 Y84.642 E0.24136
G1 X100.219 Y84.488 E0.25459
G1 X100.96 Y84.414 E0.26783
G1 X101.704 Y84.419 E0.28105
G1 X102.444 Y84.504 E0.29429
G1 X103.17 Y84.667 E0.30752
G1 X103.874 Y84.908 E0.32075
G1 X104.749 Y85.335 E0.33805
G1 X111.422 Y89.188 E0.47503
G1 X112.046 Y89.594 E0.48826
G1 X112.622 Y90.065 E0.50148
G1 X113.145 Y90.595 E0.51472
G1 X113.608 Y91.177 E0.52794
G1 X114.006 Y91.807 E0.54119
G1 X114.333 Y92.475 E0.55441
G1 X114.651 Y93.396 E0.57173
G1 X114.696 Y93.564 E0.57482
G1 X114.85 Y94.292 E0.58805
G1 X114.924 Y95.033 E0.60128
G1 X114.919 Y95.777 E0.61451
G1 X114.834 Y96.517 E0.62775
G1 X114.671 Y97.243 E0.64098
G1 X114.43 Y97.947 E0.6542
G1 X114.004 Y98.822 E0.6715
G1 X108.66 Y108.078 E0.86149
G1 X108.253 Y108.702 E0.87474
G1 X107.783 Y109.278 E0.88795
G1 X107.253 Y109.801 E0.90119
G1 X106.67 Y110.264 E0.91442
G1 X106.041 Y110.661 E0.92764
G1 X105.372 Y110.989 E0.94089
G1 X104.451 Y111.307 E0.95821
G1 X104.283 Y111.352 E0.9613
G1 X103.555 Y111.506 E0.97453
G1 X102.814 Y111.58 E0.98776
G1 X102.07 Y111.575 E1.00099
G1 X101.33 Y111.49 E1.01423
G1 X100.604 Y111.327 E1.02746
G1 X99.9 Y111.086 E1.04068
G1 X99.025 Y110.659 E1.05799
G1 X92.352 Y106.806 E1.19496
G1 X91.728 Y106.4 E1.2082
G1 X91.152 Y105.929 E1.22142
G1 X90.629 Y105.399 E1.23466
G1 X90.166 Y104.817 E1.24788
G1 X89.768 Y104.187 E1.26113
G1 X89.441 Y103.519 E1.27435
G1 X89.123 Y102.598 E1.29167
G1 X89.078 Y102.43 E1.29476
G1 X88.924 Y101.702 E1.30799
G1 X88.85 Y100.961 E1.32122
G1 X88.855 Y100.217 E1.33445
G1 X88.918 Y99.667 E1.34429
G1 X88.29 Y99.399 E1.35643
G1 X87.641 Y99.035 E1.36965
G1 X87.035 Y98.604 E1.38287
G1 X86.478 Y98.11 E1.39611
G1 X85.977 Y97.559 E1.40935
G1 X85.538 Y96.958 E1.42258
G1 X85.167 Y96.313 E1.4358
G1 X84.866 Y95.632 E1.44904
G1 X84.628 Y94.874 E1.46316
G1 X84.41 Y94.009 E1.47902
G1 X84.267 Y93.278 E1.49226
G1 X84.204 Y92.537 E1.50548
G1 X84.22 Y91.792 E1.51872
G1 X84.316 Y91.054 E1.53195
G1 X84.49 Y90.331 E1.54517
G1 X84.741 Y89.63 E1.55841
G1 X85.149 Y88.815 E1.57461
G1 X85.63 Y87.993 E1.59154
G1 X86.04 Y87.372 E1.60477
G1 X86.514 Y86.798 E1.618
G1 X87.047 Y86.278 E1.63124
M204 S625
M205 X6 Y6
G0 F4285.7 X87.374 Y86.551
M204 S500
M205 X5 Y5
G1 F1200 X87.947 Y86.112 E1.64407
G1 X88.564 Y85.74 E1.65687
G1 X89.22 Y85.438 E1.66971
G1 X89.909 Y85.209 E1.68262
G1 X90.751 Y84.981 E1.69812
G1 X91.457 Y84.832 E1.71095
G1 X92.175 Y84.761 E1.72378
G1 X92.896 Y84.77 E1.73659
G1 X93.612 Y84.859 E1.74942
G1 X94.314 Y85.027 E1.76225
G1 X94.993 Y85.271 E1.77508
G1 X95.64 Y85.589 E1.78789
G1 X96.249 Y85.976 E1.80072
G1 X96.811 Y86.429 E1.81355
G1 X96.85 Y86.464 E1.81448
G1 X97.42 Y86.022 E1.8273
G1 X98.036 Y85.646 E1.84013
G1 X98.689 Y85.34 E1.85295
G1 X99.432 Y85.093 E1.86687
G1 X99.6 Y85.048 E1.86996
G1 X100.306 Y84.9 E1.88278
G1 X101.024 Y84.831 E1.8956
G1 X101.745 Y84.842 E1.90842
G1 X102.461 Y84.933 E1.92125
G1 X103.162 Y85.103 E1.93407
G1 X103.84 Y85.349 E1.94689
G1 X104.539 Y85.698 E1.96078
G1 X111.212 Y89.551 E2.09776
G1 X111.816 Y89.946 E2.11058
G1 X112.372 Y90.405 E2.1234
G1 X112.875 Y90.923 E2.13624
G1 X113.316 Y91.493 E2.14905
G1 X113.692 Y92.109 E2.16187
G1 X113.998 Y92.763 E2.17471
G1 X114.245 Y93.505 E2.18861
G1 X114.29 Y93.673 E2.1917
G1 X114.438 Y94.379 E2.20453
G1 X114.507 Y95.097 E2.21735
G1 X114.496 Y95.818 E2.23017
G1 X114.405 Y96.534 E2.243
G1 X114.235 Y97.235 E2.25582
G1 X113.989 Y97.913 E2.26864
G1 X113.64 Y98.612 E2.28253
G1 X108.296 Y107.868 E2.47251
G1 X107.901 Y108.472 E2.48534
G1 X107.442 Y109.028 E2.49816
G1 X106.924 Y109.53 E2.51098
G1 X106.354 Y109.972 E2.5238
G1 X105.738 Y110.348 E2.53663
G1 X105.085 Y110.654 E2.54945
G1 X104.342 Y110.901 E2.56337
G1 X104.174 Y110.946 E2.56646
G1 X103.468 Y111.094 E2.57928
G1 X102.75 Y111.163 E2.59211
G1 X102.029 Y111.152 E2.60492
G1 X101.313 Y111.061 E2.61775
G1 X100.612 Y110.891 E2.63058
G1 X99.934 Y110.645 E2.6434
G1 X99.235 Y110.296 E2.65729
G1 X92.562 Y106.443 E2.79426
G1 X91.958 Y106.048 E2.80709
G1 X91.402 Y105.589 E2.8199
G1 X90.899 Y105.071 E2.83274
G1 X90.458 Y104.501 E2.84555
G1 X90.082 Y103.885 E2.85838
G1 X89.776 Y103.231 E2.87121
G1 X89.529 Y102.489 E2.88511
G1 X89.484 Y102.321 E2.88821
G1 X89.336 Y101.615 E2.90103
G1 X89.267 Y100.897 E2.91385
G1 X89.278 Y100.176 E2.92667
G1 X89.369 Y99.46 E2.9395
G1 X89.388 Y99.381 E2.94094
G1 X88.85 Y99.192 E2.95108
G1 X88.2 Y98.878 E2.96391
G1 X87.589 Y98.495 E2.97673
G1 X87.024 Y98.046 E2.98956
G1 X86.512 Y97.538 E3.00238
G1 X86.059 Y96.976 E3.01521
G1 X85.672 Y96.368 E3.02802
G1 X85.354 Y95.72 E3.04085
G1 X85.035 Y94.771 E3.05865
G1 X84.817 Y93.906 E3.07451
G1 X84.68 Y93.198 E3.08733
G1 X84.622 Y92.479 E3.10015
G1 X84.644 Y91.758 E3.11297
G1 X84.745 Y91.043 E3.12581
G1 X84.925 Y90.345 E3.13862
G1 X85.181 Y89.67 E3.15145
G1 X85.511 Y89.027 E3.1643
G1 X85.992 Y88.205 E3.18123
G1 X86.391 Y87.604 E3.19405
G1 X86.853 Y87.05 E3.20688
G1 X87.374 Y86.551 E3.2197
M204 S625
M205 X6 Y6
G0 F4285.7 X87.699 Y86.825
M204 S500
M205 X5 Y5
G1 F1200 X88.259 Y86.408 E3.23211
G1 X88.863 Y86.058 E3.24452
G1 X89.502 Y85.78 E3.25691
G1 X90.019 Y85.615 E3.26655
G1 X90.861 Y85.387 E3.28206
G1 X91.544 Y85.243 E3.29447
G1 X92.239 Y85.179 E3.30688
G1 X92.936 Y85.194 E3.31927
G1 X93.628 Y85.289 E3.33168
G1 X94.303 Y85.463 E3.34408
G1 X94.955 Y85.713 E3.35649
G1 X95.573 Y86.035 E3.36888
G1 X96.151 Y86.426 E3.38128
G1 X96.68 Y86.881 E3.39368
G1 X96.842 Y87.056 E3.39792
G1 X97.177 Y86.736 E3.40616
G1 X97.734 Y86.316 E3.41856
G1 X98.336 Y85.963 E3.43096
G1 X98.974 Y85.68 E3.44337
G1 X99.54 Y85.498 E3.45394
G1 X99.708 Y85.453 E3.45703
G1 X100.391 Y85.312 E3.46943
G1 X101.086 Y85.249 E3.48183
G1 X101.784 Y85.267 E3.49424
G1 X102.475 Y85.364 E3.50665
G1 X103.15 Y85.539 E3.51904
G1 X103.801 Y85.79 E3.53145
G1 X104.329 Y86.062 E3.542
G1 X111.002 Y89.915 E3.67898
G1 X111.585 Y90.298 E3.69138
G1 X112.121 Y90.745 E3.70378
G1 X112.602 Y91.25 E3.71618
G1 X113.022 Y91.808 E3.72859
G1 X113.376 Y92.409 E3.74099
G1 X113.658 Y93.047 E3.75339
G1 X113.84 Y93.613 E3.76396
G1 X113.885 Y93.781 E3.76705
G1 X114.026 Y94.464 E3.77945
G1 X114.089 Y95.159 E3.79185
G1 X114.071 Y95.857 E3.80427
G1 X113.974 Y96.548 E3.81667
G1 X113.799 Y97.223 E3.82907
G1 X113.548 Y97.874 E3.84147
G1 X113.276 Y98.402 E3.85203
G1 X107.932 Y107.658 E4.04201
G1 X107.549 Y108.241 E4.05441
G1 X107.102 Y108.777 E4.06682
G1 X106.597 Y109.258 E4.07922
G1 X106.04 Y109.678 E4.09162
G1 X105.438 Y110.031 E4.10402
G1 X104.8 Y110.314 E4.11643
G1 X104.234 Y110.496 E4.127
G1 X104.066 Y110.541 E4.13009
G1 X103.383 Y110.682 E4.14249
G1 X102.688 Y110.745 E4.15489
G1 X101.99 Y110.727 E4.1673
G1 X101.299 Y110.63 E4.17971
G1 X100.624 Y110.455 E4.1921
G1 X99.973 Y110.204 E4.20451
G1 X99.445 Y109.932 E4.21506
G1 X92.772 Y106.079 E4.35204
G1 X92.189 Y105.696 E4.36444
G1 X91.653 Y105.249 E4.37684
G1 X91.172 Y104.744 E4.38924
G1 X90.752 Y104.186 E4.40165
G1 X90.398 Y103.585 E4.41405
G1 X90.116 Y102.947 E4.42645
G1 X89.934 Y102.381 E4.43702
G1 X89.889 Y102.213 E4.44011
G1 X89.748 Y101.53 E4.45251
G1 X89.685 Y100.835 E4.46491
G1 X89.703 Y100.137 E4.47733
G1 X89.8 Y99.446 E4.48973
G1 X89.893 Y99.086 E4.49634
G1 X89.385 Y98.945 E4.50571
G1 X88.739 Y98.683 E4.5181
G1 X88.127 Y98.348 E4.5305
G1 X87.557 Y97.946 E4.5429
G1 X87.036 Y97.481 E4.55532
G1 X86.573 Y96.96 E4.56771
G1 X86.172 Y96.389 E4.58011
G1 X85.839 Y95.776 E4.59251
G1 X85.578 Y95.128 E4.60493
G1 X85.443 Y94.668 E4.61345
G1 X85.225 Y93.803 E4.62931
G1 X85.093 Y93.118 E4.64171
G1 X85.041 Y92.422 E4.65411
G1 X85.069 Y91.725 E4.66651
G1 X85.176 Y91.036 E4.67891
G1 X85.361 Y90.363 E4.69132
G1 X85.622 Y89.716 E4.70372
G1 X85.874 Y89.239 E4.71331
G1 X86.355 Y88.417 E4.73024
G1 X86.741 Y87.836 E4.74264
G1 X87.191 Y87.303 E4.75504
G1 X87.699 Y86.825 E4.76744
M204 S625
M205 X6 Y6
G0 F4285.7 X88.024 Y87.102
M204 S500
M205 X5 Y5
G1 F1200 X88.57 Y86.708 E4.7794
G1 X89.158 Y86.381 E4.79136
G1 X89.781 Y86.126 E4.80333
G1 X90.129 Y86.02 E4.8098
G1 X90.971 Y85.792 E4.8253
G1 X91.63 Y85.655 E4.83727
G1 X92.301 Y85.597 E4.84924
G1 X92.974 Y85.619 E4.86121
G1 X93.639 Y85.72 E4.87317
G1 X94.288 Y85.9 E4.88514
G1 X94.911 Y86.155 E4.8971
G1 X95.499 Y86.483 E4.90907
G1 X96.044 Y86.877 E4.92103
G1 X96.539 Y87.334 E4.933
G1 X96.834 Y87.679 E4.94107
G1 X97.011 Y87.47 E4.94594
G1 X97.503 Y87.011 E4.9579
G1 X98.047 Y86.614 E4.96987
G1 X98.633 Y86.283 E4.98184
G1 X99.255 Y86.025 E4.99381
G1 X99.817 Y85.859 E5.00422
G1 X100.476 Y85.724 E5.01618
G1 X101.147 Y85.668 E5.02815
G1 X101.82 Y85.691 E5.04012
G1 X102.485 Y85.795 E5.05209
G1 X103.134 Y85.976 E5.06406
G1 X103.756 Y86.233 E5.07603
G1 X104.119 Y86.426 E5.08333
G1 X110.792 Y90.279 E5.22031
G1 X111.354 Y90.649 E5.23227
G1 X111.868 Y91.084 E5.24424
G1 X112.327 Y91.577 E5.25621
G1 X112.725 Y92.12 E5.26818
G1 X113.055 Y92.707 E5.28015
G1 X113.313 Y93.328 E5.2921
G1 X113.479 Y93.89 E5.30252
G1 X113.614 Y94.549 E5.31448
G1 X113.67 Y95.22 E5.32645
G1 X113.647 Y95.893 E5.33842
G1 X113.543 Y96.558 E5.35038
G1 X113.362 Y97.207 E5.36236
G1 X113.105 Y97.829 E5.37432
G1 X112.912 Y98.192 E5.38163
G1 X107.568 Y107.448 E5.57162
G1 X107.198 Y108.01 E5.58358
G1 X106.763 Y108.524 E5.59555
G1 X106.271 Y108.983 E5.60751
G1 X105.727 Y109.38 E5.61948
G1 X105.141 Y109.711 E5.63144
G1 X104.519 Y109.969 E5.64341
G1 X103.957 Y110.135 E5.65383
G1 X103.298 Y110.27 E5.66579
G1 X102.627 Y110.326 E5.67776
G1 X101.954 Y110.303 E5.68973
G1 X101.289 Y110.199 E5.70169
G1 X100.64 Y110.018 E5.71367
G1 X100.018 Y109.761 E5.72563
G1 X99.655 Y109.568 E5.73294
G1 X92.982 Y105.715 E5.86991
G1 X92.42 Y105.345 E5.88187
G1 X91.906 Y104.91 E5.89384
G1 X91.447 Y104.417 E5.90582
G1 X91.049 Y103.874 E5.91778
G1 X90.719 Y103.287 E5.92975
G1 X90.461 Y102.666 E5.94171
G1 X90.295 Y102.104 E5.95213
G1 X90.16 Y101.445 E5.96408
G1 X90.104 Y100.774 E5.97605
G1 X90.127 Y100.101 E5.98802
G1 X90.231 Y99.436 E5.99999
G1 X90.412 Y98.787 E6.01196
G1 X90.42 Y98.767 E6.01235
G1 X89.894 Y98.66 E6.02189
G1 X89.255 Y98.449 E6.03385
G1 X88.645 Y98.164 E6.04582
G1 X88.073 Y97.809 E6.05779
G1 X87.548 Y97.388 E6.06975
G1 X87.076 Y96.908 E6.08171
G1 X86.664 Y96.375 E6.09369
G1 X86.318 Y95.797 E6.10566
G1 X86.044 Y95.183 E6.11762
G1 X85.85 Y94.566 E6.12911
G1 X85.632 Y93.701 E6.14497
G1 X85.506 Y93.039 E6.15695
G1 X85.46 Y92.368 E6.16891
G1 X85.494 Y91.695 E6.18088
G1 X85.607 Y91.032 E6.19284
G1 X85.798 Y90.386 E6.20481
G1 X86.064 Y89.768 E6.21677
G1 X86.236 Y89.451 E6.22318
G1 X86.717 Y88.629 E6.24011
G1 X87.091 Y88.07 E6.25207
G1 X87.529 Y87.558 E6.26405
G1 X88.024 Y87.102 E6.27601
M204 S625
M205 X6 Y6
G0 F4285.7 X88.347 Y87.381
M204 S500
M205 X5 Y5
G1 F1200 X88.878 Y87.01 E6.28753
G1 X89.451 Y86.708 E6.29904
G1 X90.239 Y86.425 E6.31392
G1 X91.081 Y86.197 E6.32943
G1 X91.715 Y86.067 E6.34093
G1 X92.361 Y86.016 E6.35245
G1 X93.008 Y86.044 E6.36396
G1 X93.647 Y86.153 E6.37549
G1 X94.267 Y86.338 E6.38699
G1 X94.86 Y86.599 E6.39851
G1 X95.416 Y86.931 E6.41002
G1 X95.928 Y87.329 E6.42154
G1 X96.386 Y87.787 E6.43306
G1 X96.784 Y88.298 E6.44457
G1 X96.826 Y88.368 E6.44602
G1 X96.927 Y88.216 E6.44927
G1 X97.349 Y87.724 E6.46079
G1 X97.828 Y87.288 E6.4723
G1 X98.357 Y86.914 E6.48382
G1 X98.928 Y86.609 E6.49533
G1 X99.758 Y86.31 E6.51101
G1 X99.926 Y86.265 E6.5141
G1 X100.56 Y86.136 E6.5256
G1 X101.206 Y86.087 E6.53712
G1 X101.853 Y86.117 E6.54863
G1 X102.492 Y86.227 E6.56016
G1 X103.112 Y86.414 E6.57167
G1 X103.909 Y86.789 E6.58733
G1 X110.582 Y90.642 E6.7243
G1 X111.122 Y91 E6.73582
G1 X111.614 Y91.422 E6.74734
G1 X112.05 Y91.901 E6.75885
G1 X112.424 Y92.43 E6.77037
G1 X112.729 Y93.001 E6.78188
G1 X113.028 Y93.831 E6.79756
G1 X113.073 Y93.999 E6.80065
G1 X113.202 Y94.633 E6.81215
G1 X113.251 Y95.279 E6.82367
G1 X113.221 Y95.926 E6.83518
G1 X113.111 Y96.565 E6.84671
G1 X112.924 Y97.185 E6.85822
G1 X112.549 Y97.982 E6.87387
G1 X107.205 Y107.238 E7.06386
G1 X106.847 Y107.778 E7.07538
G1 X106.425 Y108.27 E7.0869
G1 X105.946 Y108.706 E7.09842
G1 X105.417 Y109.08 E7.10993
G1 X104.846 Y109.385 E7.12144
G1 X104.016 Y109.684 E7.13712
G1 X103.848 Y109.729 E7.14021
G1 X103.214 Y109.858 E7.15171
G1 X102.568 Y109.907 E7.16323
G1 X101.921 Y109.877 E7.17474
G1 X101.282 Y109.767 E7.18627
G1 X100.662 Y109.58 E7.19778
G1 X99.865 Y109.205 E7.21344
G1 X93.192 Y105.352 E7.35041
G1 X92.652 Y104.994 E7.36193
G1 X92.16 Y104.572 E7.37345
G1 X91.724 Y104.093 E7.38496
G1 X91.35 Y103.564 E7.39648
G1 X91.045 Y102.993 E7.40799
G1 X90.746 Y102.163 E7.42367
G1 X90.701 Y101.995 E7.42676
G1 X90.572 Y101.361 E7.43826
G1 X90.523 Y100.715 E7.44978
G1 X90.553 Y100.068 E7.46129
G1 X90.663 Y99.429 E7.47282
G1 X90.85 Y98.809 E7.48433
G1 X91.014 Y98.419 E7.49185
G1 X90.371 Y98.338 E7.50337
G1 X89.743 Y98.179 E7.51489
G1 X89.14 Y97.943 E7.5264
G1 X88.57 Y97.635 E7.53791
G1 X88.043 Y97.259 E7.54942
G1 X87.565 Y96.821 E7.56095
G1 X87.146 Y96.327 E7.57246
G1 X86.79 Y95.786 E7.58397
G1 X86.504 Y95.205 E7.59548
G1 X86.257 Y94.463 E7.60939
G1 X86.039 Y93.598 E7.62524
G1 X85.92 Y92.961 E7.63676
G1 X85.88 Y92.315 E7.64827
G1 X85.92 Y91.668 E7.65979
G1 X86.039 Y91.032 E7.67129
G1 X86.236 Y90.414 E7.68282
G1 X86.599 Y89.664 E7.69763
G1 X87.08 Y88.842 E7.71456
G1 X87.441 Y88.304 E7.72608
G1 X87.865 Y87.814 E7.7376
G1 X88.347 Y87.381 E7.74912
M204 S625
M205 X6 Y6
G0 F4285.7 X88.668 Y87.663
M204 S500
M205 X5 Y5
G1 F1200 X89.184 Y87.317 E7.76016
G1 X89.74 Y87.04 E7.7712
G1 X90.349 Y86.831 E7.78265
G1 X91.191 Y86.603 E7.79815
G1 X91.799 Y86.479 E7.80918
G1 X92.419 Y86.435 E7.82023
G1 X93.039 Y86.471 E7.83127
G1 X93.65 Y86.586 E7.84232
G1 X94.241 Y86.778 E7.85337
G1 X94.802 Y87.045 E7.86441
G1 X95.324 Y87.381 E7.87545
G1 X95.799 Y87.782 E7.8865
G1 X96.219 Y88.24 E7.89755
G1 X96.576 Y88.749 E7.9086
G1 X96.806 Y89.186 E7.91738
G1 X96.933 Y88.966 E7.92189
G1 X97.278 Y88.449 E7.93294
G1 X97.686 Y87.981 E7.94398
G1 X98.151 Y87.568 E7.95503
G1 X98.665 Y87.219 E7.96608
G1 X99.219 Y86.939 E7.97711
G1 X99.866 Y86.715 E7.98928
G1 X100.034 Y86.67 E7.99237
G1 X100.644 Y86.549 E8.00343
G1 X101.263 Y86.506 E8.01446
G1 X101.884 Y86.543 E8.02552
G1 X102.494 Y86.66 E8.03656
G1 X103.084 Y86.854 E8.0476
G1 X103.699 Y87.153 E8.05975
G1 X110.372 Y91.006 E8.19672
G1 X110.889 Y91.351 E8.20777
